X: 159
T: The Shakin's o' the Pocky
R: Strathspey
O: Scotland
M: 4/4
L: 1/8
Z: Phil Taylor <aar09@pop.dial.pipex.com> abcusers 2002-4-16
C: Peter Milne \& Scott Skinner
%%RR_hdr-OriginalCollection: <URL:http://www.leeds.ac.uk/music/Info/RRTuneBk/>
%%RR_hdr-AbcTypedBy: Richard Robinson <richard@beulah.demon.co.uk>
K: Bb
|: ~B,>D F>G F<D B,A \
| ~B>A G/A/B/c/ (d2 d3/2)z \
|1 [e/G/]c3/ [d/F/]B3/ [c/E/]A3/ BG \
| F<D B>D C2 C<D |
:|2 [e/G/]c3/ [d/F/]B3/ [c/E/]A3/ {A}[B/D/]G3/ \
|  G/F/E/D/ F/E/D/C/ B,3 :: a \
| {a}b>f d<B g<e c>a |
| {a}b>f e/d/c/B/ {A}f3g/a/ \
| b>f d<B g<e c>A \
| [A/F/]B3/ c<f [B2(D2] [D/)B/]a3/ |
| {a}b>f d<B g<e c>a \
| {a}b>f e/d/c/B/ {A}(f2 f)>e \
| d>B e>c d/c/B/A/ {A}B>G \
| G/F/E/D/ F/E/D/C/ B,3 :|

%%sep 1 1 500

